icons/eip155:999/erc20:0x9FDBdA0A5e284c32744D2f17Ee5c74B284993463.svg

<?xml version="1.0" encoding="UTF-8" standalone="no"?>
<svg
   width="512"
   height="512"
   viewBox="0 0 512 512"
   fill="none"
   version="1.1"
   id="svg2"
   sodipodi:docname="erc20:0x9FDBdA0A5e284c32744D2f17Ee5c74B284993463.svg"
   inkscape:version="1.4 (e7c3feb1, 2024-10-09)"
   xmlns:inkscape="http://www.inkscape.org/namespaces/inkscape"
   xmlns:sodipodi="http://sodipodi.sourceforge.net/DTD/sodipodi-0.dtd"
   xmlns="http://www.w3.org/2000/svg"
   xmlns:svg="http://www.w3.org/2000/svg">
  <defs
     id="defs2" />
  <sodipodi:namedview
     id="namedview2"
     pagecolor="#ffffff"
     bordercolor="#000000"
     borderopacity="0.25"
     inkscape:showpageshadow="2"
     inkscape:pageopacity="0.0"
     inkscape:pagecheckerboard="0"
     inkscape:deskcolor="#d1d1d1"
     inkscape:zoom="1.6263277"
     inkscape:cx="137.42618"
     inkscape:cy="110.37136"
     inkscape:window-width="1736"
     inkscape:window-height="790"
     inkscape:window-x="0"
     inkscape:window-y="31"
     inkscape:window-maximized="0"
     inkscape:current-layer="svg2" />
  <rect
     style="fill:#ff6c15;fill-opacity:1;stroke-width:0.981643"
     id="rect1"
     width="512"
     height="512"
     x="0"
     y="0" />
  <g
     id="g2"
     transform="scale(25.6)">
    <path
       d="M 10,20 C 15.5228,20 20,15.5228 20,10 20,4.47715 15.5228,0 10,0 4.47715,0 0,4.47715 0,10 0,15.5228 4.47715,20 10,20 Z"
       fill="#ff6c15"
       id="path1" />
    <path
       d="M 14.6,8.85016 C 14.8056,7.58016 13.9067,6.99239 13.4022,6.66794 12.9,6.3435 12.1322,6.11016 12.1322,6.11016 L 12.6233,4.13239 11.49,3.84794 10.9989,5.82572 10.0933,5.59683 10.5845,3.61905 9.43779,3.3335 8.94668,5.31127 6.55001,4.70905 6.2589,5.88239 c 0,0 1.18334,0.29555 1.31334,0.33 0.13333,0.03222 0.11555,0.1 0.10444,0.14444 -0.01111,0.04444 -1.48889,6.00557 -1.51111,6.08447 -0.01778,0.08 -0.03111,0.1255 -0.14111,0.1 l -1.25667,-0.3156 -0.32333,1.3034 2.32,0.5811 -0.47,1.8911 1.23666,0.31 0.47001,-1.8922 0.76999,0.1933 -0.46999,1.8922 1.17777,0.2956 0.47111,-1.8911 0.88669,0.2222 c 0.5889,0.1478 2.8266,0.1755 3.3133,-1.79 0.4878,-1.9667 -1.1244,-2.7989 -1.1244,-2.7989 0,0 1.3666,-0.4222 1.5744,-1.69224 z m -2.6855,3.64664 c -0.2334,0.9411 -1.2834,1.0134 -1.5223,0.9523 l -2.10552,-0.5267 0.62222,-2.5133 2.1833,0.5466 c 0.4189,0.1067 1.0567,0.6 0.8223,1.5411 z M 12.3033,8.66905 C 12.0545,9.67127 11.0545,9.62572 10.7389,9.54794 L 9.20001,9.16239 9.79335,6.77016 11.1978,7.12127 c 0.24,0.06 1.3555,0.54667 1.1055,1.54778 z"
       fill="#fff6ed"
       id="path2" />
  </g>
</svg>

<svg
  width="20"
  height="20"
  viewBox="0 0 20 20"
  fill="none"
  xmlns="http://www.w3.org/2000/svg"
>
  <path
    d="M10 20C15.5228 20 20 15.5228 20 10C20 4.47715 15.5228 0 10 0C4.47715 0 0 4.47715 0 10C0 15.5228 4.47715 20 10 20Z"
    fill="#FF6C15"
  />
  <path
    d="M14.6 8.85016C14.8056 7.58016 13.9067 6.99239 13.4022 6.66794C12.9 6.3435 12.1322 6.11016 12.1322 6.11016L12.6233 4.13239L11.49 3.84794L10.9989 5.82572L10.0933 5.59683L10.5845 3.61905L9.43779 3.3335L8.94668 5.31127L6.55001 4.70905L6.2589 5.88239C6.2589 5.88239 7.44224 6.17794 7.57224 6.21239C7.70557 6.24461 7.68779 6.31239 7.67668 6.35683C7.66557 6.40127 6.18779 12.3624 6.16557 12.4413C6.14779 12.5213 6.13446 12.5668 6.02446 12.5413L4.76779 12.2257L4.44446 13.5291L6.76446 14.1102L6.29446 16.0013L7.53112 16.3113L8.00113 14.4191L8.77112 14.6124L8.30113 16.5046L9.4789 16.8002L9.95001 14.9091L10.8367 15.1313C11.4256 15.2791 13.6633 15.3068 14.15 13.3413C14.6378 11.3746 13.0256 10.5424 13.0256 10.5424C13.0256 10.5424 14.3922 10.1202 14.6 8.85016ZM11.9145 12.4968C11.6811 13.4379 10.6311 13.5102 10.3922 13.4491L8.28668 12.9224L8.9089 10.4091L11.0922 10.9557C11.5111 11.0624 12.1489 11.5557 11.9145 12.4968ZM12.3033 8.66905C12.0545 9.67127 11.0545 9.62572 10.7389 9.54794L9.20001 9.16239L9.79335 6.77016L11.1978 7.12127C11.4378 7.18127 12.5533 7.66794 12.3033 8.66905Z"
    fill="#FFF6ED"
  />
</svg>
